build/assets/img/svg/icon-arrow-9.svg

<svg width="121" height="88" viewBox="0 0 121 88" fill="none" xmlns="http://www.w3.org/2000/svg">
<path d="M119.097 72.6645L117.451 72.6516C117.442 71.5268 117.268 70.4007 116.764 69.272L118.242 68.8015C118.911 70.0922 119.087 71.379 119.097 72.6645ZM118.473 76.6765C117.99 77.9582 117.341 79.0778 116.361 80.0342L115.2 78.9004C116.015 77.9427 116.665 76.9837 116.986 76.0222L118.473 76.6765ZM116.401 65.2523L115.092 66.2061C114.425 65.2368 113.596 64.4269 112.6 63.4551L113.742 62.3393C114.738 63.3111 115.734 64.283 116.401 65.2523ZM115.227 4.34659C115.073 5.6308 114.919 6.915 114.6 8.03724L112.951 7.70299C113.104 6.41878 113.259 5.29525 113.413 4.01104L115.227 4.34659ZM113.808 11.7266C113.489 13.0095 113.17 14.1318 112.851 15.4147L111.201 14.9198C111.521 13.7975 111.839 12.5146 112.159 11.3924L113.808 11.7266ZM113.089 82.4188C111.943 83.0525 110.63 83.5243 109.481 83.9973L108.974 82.3866C110.124 82.0742 111.272 81.6012 112.254 80.9661L113.089 82.4188ZM111.729 18.9408C111.245 20.0618 110.762 21.3434 110.277 22.4643L108.79 21.81C109.275 20.6891 109.759 19.5681 110.079 18.4459L111.729 18.9408ZM110.759 59.9058L109.782 61.1836C108.789 60.5331 107.796 59.8826 106.638 59.2308L107.449 57.7911C108.607 58.4429 109.764 59.0946 110.759 59.9058ZM108.826 25.9879C108.502 26.628 108.178 27.2682 107.854 27.9084C107.529 28.3879 107.368 28.8687 107.042 29.1875L105.554 28.3724C105.879 27.8929 106.041 27.5729 106.366 27.0934C106.69 26.4532 107.013 25.813 107.337 25.1728L108.826 25.9879ZM104.929 32.3845C104.28 33.5041 103.63 34.4631 102.816 35.5815L101.491 34.607C102.141 33.6481 102.79 32.5284 103.441 31.5694L104.929 32.3845ZM105.371 84.6079C104.054 84.5976 102.736 84.4266 101.415 83.9342L101.895 82.3312C103.05 82.6616 104.204 82.8313 105.356 82.8403L105.371 84.6079ZM103.977 55.9965L103.331 57.4375C102.174 56.9464 101.016 56.2947 99.8599 55.8036L100.506 54.3626C101.663 54.8536 102.819 55.3447 103.977 55.9965ZM100.867 38.6191C100.216 39.578 99.5673 40.6977 98.7524 41.6554L97.264 40.8404C97.913 39.7207 98.5633 38.7617 99.3769 37.6434L100.867 38.6191ZM98.5906 80.8592L97.7783 82.1383C96.6205 81.4865 95.6247 80.5147 94.6288 79.5428L95.7716 78.427C96.7675 79.3989 97.5974 80.2088 98.5906 80.8592ZM96.8722 52.888L96.226 54.3291C95.0696 53.838 93.9131 53.3469 92.758 53.0165C92.4342 53.6567 92.2751 54.2982 92.1159 54.9396L90.4656 54.4447C90.7853 53.3225 91.2683 52.0408 91.9172 50.9212L93.4043 51.5755C94.5593 51.9059 95.7158 52.397 96.8722 52.888ZM96.8042 44.8537C96.479 45.3332 96.3171 45.6533 95.992 46.1327C95.6682 46.7729 95.3443 47.4131 94.8559 48.052L93.3675 47.2369C93.6913 46.5968 94.0151 45.9566 94.5036 45.3177C94.8287 44.8382 94.9893 44.3575 95.3158 44.0387L96.8042 44.8537ZM93.6084 75.6786L92.1336 76.4705C91.4656 75.3405 90.7976 74.2105 90.2942 73.0819L91.7703 72.4507C92.4383 73.5807 92.9417 74.7093 93.6084 75.6786ZM90.9921 58.3051C90.6737 59.588 90.5187 60.7115 90.3636 61.835L88.716 61.6615C88.8697 60.3773 89.0235 59.093 89.3432 57.9708L90.9921 58.3051ZM90.754 69.0685L89.1106 69.377C88.9378 68.4116 88.765 67.4462 88.5908 66.3201C88.5881 65.9987 88.5854 65.6774 88.584 65.5167L90.2302 65.5296C90.233 65.8509 90.2343 66.0116 90.237 66.333C90.4085 67.1377 90.5812 68.1031 90.754 69.0685ZM89.7703 50.101L89.2901 51.704C88.135 51.3736 86.814 50.8812 85.6589 50.5509L86.1392 48.9478C87.2942 49.2782 88.4507 49.7693 89.7703 50.101ZM82.3434 47.7934L81.8631 49.3964C80.708 49.066 79.3883 48.7344 78.2333 48.404L78.5489 46.7997C79.8686 47.1313 81.0237 47.4617 82.3434 47.7934ZM74.7572 46.1273L74.4415 47.7316C73.1219 47.3999 71.9681 47.2302 70.6498 47.0592L70.9654 45.4549C72.2824 45.4652 73.6021 45.7969 74.7572 46.1273ZM67.1724 44.6219L67.0213 46.2275C65.703 46.0565 64.5493 45.8868 63.231 45.7158L63.382 44.1102C64.7003 44.2812 66.0187 44.4522 67.1724 44.6219ZM59.593 43.7592L59.442 45.3648C58.1236 45.1938 56.9713 45.1848 55.653 45.0138L55.804 43.4082C56.9577 43.5779 58.276 43.7489 59.593 43.7592ZM51.8531 43.3773L51.8667 44.9842C51.0436 44.9777 50.0558 44.97 49.2327 44.9636L48.0804 44.9545L48.0668 43.3477L49.2191 43.3567C50.0422 43.3631 51.03 43.3708 51.8531 43.3773ZM44.2941 44.9249C42.9771 44.9146 41.8261 45.0663 40.5092 45.056L40.331 43.4478C41.6466 43.2974 42.9635 43.3077 44.1159 43.3168L44.2941 44.9249ZM36.727 45.5084C35.4114 45.6588 34.2604 45.8105 32.9448 45.9609L32.7665 44.3527C34.0821 44.2023 35.2331 44.0507 36.5487 43.9003L36.727 45.5084ZM29.1626 46.4133C27.847 46.5637 26.6973 46.8761 25.3817 47.0264L25.0389 45.417C26.3545 45.2666 27.5041 44.9543 28.8197 44.8039L29.1626 46.4133ZM21.7655 47.6409C20.4513 47.9519 19.3016 48.2643 18.1506 48.416L17.6432 46.8052C18.9574 46.4942 20.1071 46.1818 21.4213 45.8707L21.7655 47.6409ZM14.3739 49.5112C13.2243 49.8235 11.91 50.1346 10.7617 50.6076L10.2543 48.9969C11.4039 48.6845 12.7168 48.2128 13.8664 47.9004L14.3739 49.5112ZM7.15097 51.8648C6.00271 52.3378 4.85306 52.6502 3.54017 53.122L2.86945 51.6706C4.01772 51.1976 5.3306 50.7258 6.48023 50.4135L7.15097 51.8648Z" fill="black"/>
<path d="M11.0336 57.2291L11.679 55.6252L4.07583 52.669L7.47408 45.455L5.98584 44.7997L1.77754 53.6163L11.0336 57.2291Z" fill="black"/>
</svg>

<svg width="121" height="88" fill="none" xmlns="http://www.w3.org/2000/svg"><path d="M119.097 72.665l-1.646-.013c-.009-1.125-.183-2.251-.687-3.38l1.478-.47c.669 1.29.845 2.577.855 3.862zm-.624 4.011c-.483 1.282-1.132 2.402-2.112 3.358L115.2 78.9c.815-.957 1.465-1.916 1.786-2.878l1.487.654zm-2.072-11.424l-1.309.954c-.667-.97-1.496-1.78-2.492-2.75l1.142-1.117c.996.972 1.992 1.944 2.659 2.913zm-1.174-60.905c-.154 1.284-.308 2.568-.627 3.69l-1.649-.334c.153-1.284.308-2.408.462-3.692l1.814.336zm-1.419 7.38c-.319 1.282-.638 2.405-.957 3.688l-1.65-.495c.32-1.123.638-2.405.958-3.528l1.649.335zm-.719 70.692c-1.146.633-2.459 1.105-3.608 1.578l-.507-1.61c1.15-.313 2.298-.786 3.28-1.42l.835 1.452zm-1.36-63.478c-.484 1.12-.967 2.402-1.452 3.523l-1.487-.654c.485-1.12.969-2.242 1.289-3.364l1.65.495zm-.97 40.965l-.977 1.278c-.993-.65-1.986-1.301-3.144-1.953l.811-1.44c1.158.652 2.315 1.304 3.31 2.115zm-1.933-33.918l-.972 1.92c-.325.48-.486.96-.812 1.28l-1.488-.816c.325-.48.487-.8.812-1.279l.971-1.92 1.489.815zm-3.897 6.397c-.649 1.12-1.299 2.078-2.113 3.197l-1.325-.975c.65-.959 1.299-2.079 1.95-3.038l1.488.816zm.442 52.223c-1.317-.01-2.635-.181-3.956-.674l.48-1.603c1.155.33 2.309.5 3.461.51l.015 1.767zm-1.394-28.612l-.646 1.441c-1.157-.49-2.315-1.142-3.471-1.633l.646-1.441c1.157.49 2.313.982 3.471 1.633zm-3.11-17.377c-.651.959-1.3 2.079-2.115 3.036l-1.488-.815c.649-1.12 1.3-2.078 2.113-3.197l1.49.976zm-2.276 42.24l-.813 1.28c-1.157-.652-2.153-1.624-3.15-2.596l1.144-1.116c.995.972 1.825 1.782 2.819 2.432zm-1.719-27.971l-.646 1.441c-1.156-.491-2.313-.982-3.468-1.313-.324.64-.483 1.282-.642 1.924l-1.65-.495c.32-1.123.802-2.404 1.451-3.524l1.487.654c1.155.33 2.312.822 3.468 1.313zm-.068-8.034c-.325.48-.487.8-.812 1.279-.324.64-.648 1.28-1.136 1.919l-1.488-.815c.323-.64.647-1.28 1.136-1.92.325-.479.485-.96.812-1.278l1.488.815zm-3.196 30.825l-1.474.791c-.668-1.13-1.336-2.26-1.84-3.388l1.476-.631c.668 1.13 1.172 2.258 1.838 3.228zm-2.616-17.374c-.318 1.283-.473 2.407-.628 3.53l-1.648-.174c.154-1.284.308-2.568.627-3.69l1.65.334zm-.238 10.764l-1.643.308c-.173-.965-.346-1.93-.52-3.057l-.007-.803 1.646.013.007.803c.172.805.344 1.77.517 2.736zM89.77 50.1l-.48 1.603c-1.155-.33-2.476-.823-3.631-1.153l.48-1.603c1.155.33 2.312.821 3.631 1.153zm-7.427-2.308l-.48 1.603c-1.155-.33-2.475-.662-3.63-.992l.316-1.604c1.32.331 2.475.662 3.794.993zm-7.586-1.666l-.316 1.605c-1.32-.332-2.473-.502-3.791-.673l.315-1.604c1.317.01 2.637.342 3.792.672zm-7.585-1.505l-.15 1.605c-1.319-.17-2.473-.34-3.791-.511l.151-1.606c1.318.171 2.637.342 3.79.512zm-7.579-.863l-.151 1.606c-1.318-.171-2.47-.18-3.789-.351l.151-1.606c1.154.17 2.472.34 3.789.351zm-7.74-.382l.014 1.607-2.634-.02-1.153-.01-.013-1.606 1.152.009 2.634.02zm-7.559 1.548c-1.317-.01-2.468.141-3.785.131l-.178-1.608c1.316-.15 2.633-.14 3.785-.131l.178 1.608zm-7.567.583c-1.316.15-2.467.302-3.782.453l-.178-1.608c1.315-.15 2.466-.302 3.782-.453l.178 1.608zm-7.564.905c-1.316.15-2.466.463-3.781.613l-.343-1.609c1.316-.15 2.465-.463 3.78-.613l.344 1.61zm-7.398 1.228c-1.314.31-2.463.623-3.614.775l-.508-1.61c1.314-.312 2.464-.624 3.778-.935l.345 1.77zm-7.391 1.87c-1.15.313-2.464.624-3.612 1.097l-.508-1.611c1.15-.313 2.463-.784 3.612-1.097l.508 1.611zM7.15 51.865c-1.148.473-2.298.785-3.61 1.257l-.672-1.451c1.149-.473 2.462-.945 3.611-1.258l.671 1.452z" fill="#000"/><path d="M11.034 57.23l.645-1.605-7.603-2.956 3.398-7.214-1.488-.655-4.208 8.816 9.256 3.613z" fill="#000"/></svg>
